X:165
T:Long Strand
R:reel
H:There is also another version in Ddor, #531.
H:See also "Sporting Nellie" #760, "Sporting Nell" #899,
H:"Old Gorman's Reel" #603
D:Matt Molloy: Heathery Breeze
Z:id:hn-reel-165
M:C|
K:Edor
BE~E2 B2ed|(3Bcd AG FEFA|BE~E2 B2ed|(3Bcd AG FE~E2:|
d2ed Adfd|d2fd Beef|d2fd adfd|(3Bcd AG FE~E2|
d2ed Adfd|d2fd Bdef|~g3e ~f3e|dBBA Beed||

